X:1
T:Title
%%score [ ( 1 2 ) ( 3 4 ) ] { ( 5 6 ) | ( 7 8 ) }
L:1/8
Q:1/4=120
M:4/4
K:F
V:1 treble nm="Midi_74"
V:2 treble 
V:3 bass nm="Midi_74"
V:4 bass 
V:5 treble nm="Org."
V:6 treble 
V:7 bass 
V:8 bass 
V:1
 (A6 F2) | (B2 A2) (G2 F2) | F8 || c8 | c4 (=B2 c2) | e4 d4 | c8 || (c6 A2) | (d2 c2) (B2 A2) | %9
 A8 || F8 | F4 (E2"^William Henry Havergal\n(1793-1870)" F2) | A4 G4 | F8 |] %14
V:2
 F8 | F4 (E2 F2) | F8 || (G6 E2) | (A2 G2) (F2 E2) | (E2 F2) (G2 F2) | E8 || (A6 F2) | %8
 (B2 A2) (G2 F2) | F8 || F8 | F4 (B,2 C2) | F4 E4 | F8 |] %14
V:3
 (C6 A,2) | (D2 C2) (B,2 A,2) | A,8 || C8 | C4 (F,2 G,2) | C4 =B,4 | C8 || C8 | F4 (E2 F2) | C8 || %10
 (C6 A,2) | (D2 C2) (B,2 A,2) | (A,2 B,2) (C2 B,2) | A,8 |] %14
V:4
 F,8 | F,4 F,4 | F,8 || (E,6 C,2) | (F,2 E,2) (D,2 C,2) | G,4 G,,4 | C,8 || F,8 | F,4 F,4 | F,8 || %10
 (A,6 F,2) | (B,2 A,2) (G,2 F,2) | C,4 C,4 | F,8 |] %14
V:5
 A6 F2 | B2 A2 G2 F2 | F8 || c8 | c4 =B2 c2 | e4 [=Bd]4 | c8 || c6 A2 | d2 c2 B2 A2 | A8 || F8 | %11
 F4 E2 F2 | A4 G4 | F8 |] %14
V:6
 x8 | x8 | x8 || G6 E2 | A2 G2 F2 E2 | [Gc]4 G2 F2 | E8 || A6 F2 | B2 A2 G2 F2 | F8 || F8 | x8 | %12
 F4 E4 | F8 |] %14
V:7
 C6 A,2 | D2 C2 B,2 A,2 | A,8 || x8 | x8 | x8 | x8 || x8 | x8 | x8 || C6 A,2 | D2 C2 B,2 A,2 | %12
 C4 C2 B,2 | A,8 |] %14
V:8
 F,8 | F,4 F,4 | F,8 || E,6 C,2 | F,2 E,2 D,2 C,2 | G,4 G,,4 | C,8 || F,8 | F,4 F,4 | F,8 || %10
 A,6 F,2 | B,2 A,2 G,2 F,2 | C,4 C,4 | F,8 |] %14

